X: 14
T: No_22_A_Little_Golden_Calliste.krn
N: Derived from No_22_A_Little_Golden_Calliste.krn
%%abc-version 2.0
%%abcx-abcm2ps-target-version 5.9.1 (29 Sep 2008)
%%abc-creator hum2abc beta
%%abcx-conversion-date 2019/03/15 08:25:35
%%humdrum-veritas 1782853296
%%humdrum-veritas-data 1363182029
%%linebreak <none>
%%barnumbers 0
L: 1/16
M: 3/4
K: C clef=treble
[K:clef=treble][M:3/4]G,2G,2G,4G,4 ]|:  
[M:2/4]G4A4 | 
G4E4 | 
[M:3/4]E3D E3ED4 | 
[M:2/4]C4A,2 z2 | 
D4D4 | 
D3C A,3B, | 
C3A, G,3C | 
[M:3/4]CC3A,4G,2 z2 | 
[M:2/4]A,4F,2F,2 | 
[M:3/4]G,4G,4G,2 z2 :|]  
[M:2/4]A2AG G2G2 | 
A2AG G2GG | 
[M:3/4]A2AA B2AA G2G2 | 
G2DD C2C2 G,2G,G, | 
[M:2/4]A,2A,3/G,/ G,2G, z | 
A,2A,G, G,2G,3/C/ | 
A,2A,2 A, z A2 | 
GGGA EEED/C/ | 
CCA,2 A,2A, z | 
A,2A,3/G,/ G,2G,3/C/ | 
[M:7/8]A,2A,2A,2A,2A,2A,2A,2 |]  



